X:59
T:Sir Roger DeCoverleys Reel. LIT.059
M:9/8
Q:3/8=115
L:1/8
B:Wm. Litten MS, 1802
Z:Village Music Project 2017 Anne Wride
K:A
ABA A2f ecA | BcB BcA GFE | ABA A2f efg | a2A AcB/A/ GFE :|
|: edc d2f ecA | BcB BcA GFE | edc d2f efg | a2A AcB/A/ GFE :|

